app/images/brands/dr-pepper.svg

<svg width="80" height="58" viewBox="0 0 80 58" fill="none" xmlns="http://www.w3.org/2000/svg">
<g clip-path="url(#clip0_1922_2264)">
<path d="M71.8778 15.6052C72.5536 15.6052 73.1014 15.0567 73.1014 14.38C73.1014 13.7033 72.5536 13.1548 71.8778 13.1548C71.2021 13.1548 70.6542 13.7033 70.6542 14.38C70.6542 15.0567 71.2021 15.6052 71.8778 15.6052Z" fill="#7B002B"/>
<path d="M72.8654 13.9315C72.9543 14.1263 72.9836 14.3432 72.9496 14.5547C72.9156 14.7662 72.8199 14.9629 72.6744 15.1199C72.5289 15.277 72.3402 15.3874 72.1321 15.4372C71.924 15.4869 71.7058 15.4739 71.5051 15.3997C71.3044 15.3255 71.1302 15.1934 71.0044 15.0201C70.8786 14.8469 70.8068 14.6402 70.7982 14.4261C70.7896 14.2121 70.8444 14.0002 70.9559 13.8174C71.0673 13.6345 71.2304 13.4888 71.4244 13.3986C71.6862 13.2791 71.9846 13.2681 72.2545 13.3679C72.5244 13.4677 72.744 13.6703 72.8654 13.9315Z" fill="white"/>
<path d="M46.6997 32.8353V33.1581L41.2769 35.7155V35.2858C41.2769 35.2858 42.0114 34.5765 42.0114 32.6177V20.3898C42.0114 20.3898 41.7753 18.8024 40.9827 18.4572V18.1101L44.1775 16.7348C44.4905 16.5997 45.2306 16.0255 45.4255 15.7047H45.7122V16.7929C46.7652 15.1474 48.1668 14.1417 49.8607 14.0235C52.5253 13.8284 53.1998 16.9018 53.1155 19.0389C52.9806 22.6864 50.6946 26.7993 47.0444 27.516C46.6228 27.6004 46.1581 27.5085 45.7122 27.364V31.0453C45.714 31.0472 45.6616 32.3813 46.6997 32.8353Z" fill="#7B002B"/>
<path d="M34.6587 38.3328V38.6631L29.2453 41.2205V40.7908C29.2453 40.7908 29.9705 40.0816 29.9705 38.1227V25.8967C29.9705 25.8967 29.7344 24.3075 28.9418 23.9622V23.617L32.1459 22.2398C32.4589 22.1066 33.199 21.5305 33.3939 21.2022H33.6731V22.2998C34.7337 20.6524 36.1259 19.6486 37.8217 19.5229C40.4862 19.3353 41.1514 22.4011 41.0764 24.5458C40.9415 28.1839 38.6649 32.2986 35.0147 33.0154C34.5856 33.0998 34.1209 33.0154 33.675 32.8634V36.5541C33.6731 36.5503 33.63 37.8844 34.6587 38.3328ZM64.4651 13.4756L57.7944 16.7253C57.7944 16.7253 57.7438 19.0557 59.8349 19.0557C61.9261 19.0557 64.4894 15.7553 64.4894 15.7553L64.7255 15.8829L63.916 19.0238C63.916 19.0238 60.3315 22.5362 57.1198 22.5362C53.8988 22.5362 53.7976 17.9749 53.7976 17.9749C53.7976 17.9749 53.5877 12.8508 58.5532 9.80927C63.5207 6.82219 64.7274 11.5674 64.4651 13.4756Z" fill="#7B002B"/>
<path d="M28.925 29.7207L22.2543 32.9705C22.2543 32.9705 22.2037 35.3008 24.2949 35.3008C26.386 35.3008 28.9494 31.9985 28.9494 31.9985L29.1855 32.1336L28.376 35.2746C28.376 35.2746 24.7914 38.7795 21.5704 38.7795C18.3587 38.7795 18.2482 34.2295 18.2482 34.2295C18.2482 34.2295 18.0458 29.0959 23.0113 26.0638C27.9806 23.0842 29.1855 27.8125 28.925 29.7207Z" fill="#7B002B"/>
<path d="M18.8235 40.0122V40.3255L10.3333 44.2339V43.8717C10.3333 43.8717 11.5044 42.5715 11.5044 40.4268V23.2774C11.5044 23.2774 11.5888 19.9676 9.86861 19.309V19.0238L19.1439 14.7515C24.3624 12.3348 25.9307 14.8097 26.1425 17.2489C26.4123 20.2979 25.1475 23.8591 22.2637 25.5759C20.8565 26.4109 19.4212 27.1952 17.9634 27.805V27.2908C19.9459 25.7541 21.1095 23.1536 21.042 20.5962C21.0083 19.4723 19.9046 17.9956 18.4618 18.7124L16.5899 19.6505V36.4435C16.5899 36.4416 16.5374 40.5619 18.8235 40.0122ZM70.006 16.4721V16.7085L64.795 19.2002V18.7781C64.795 18.7781 65.3852 17.9844 65.3852 16.4721V9.06818C65.3852 9.06818 65.2672 8.0212 64.3734 7.44705L68.0573 5.75087C68.0573 5.75087 68.6981 5.39625 68.9848 4.97408L69.1797 5.17672V6.27436C69.1797 6.27436 70.4351 3.66442 72.2583 3.66442V6.86352C72.2583 6.86352 70.0247 7.25191 69.1965 9.27082V14.9954C69.1965 14.9954 69.1965 15.9842 70.006 16.4721ZM47.7623 12.8077V13.0441L42.5512 15.5358V15.1136C42.5512 15.1136 43.1415 14.32 43.1415 12.8077V5.40376C43.1415 5.40376 43.0234 4.35678 42.1371 3.78263L45.8135 2.08645C45.8135 2.08645 46.4543 1.7337 46.741 1.30966L46.9434 1.5123V2.60994C46.9434 2.60994 48.1988 0 50.0202 0V3.1991C50.0202 3.1991 47.7772 3.58749 46.9603 5.6064V11.331C46.9621 11.331 46.9621 12.3179 47.7623 12.8077ZM34.2204 19.3691L27.0962 22.7295V22.2905C27.0962 22.2905 27.9975 21.5812 27.9975 19.082V6.77158C27.9975 6.77158 27.872 5.08291 26.7758 5.20112V4.91404L34.0948 1.55358C37.2578 0.10132 41.8954 1.06386 41.8954 5.91786V7.72474C41.8935 13.0441 38.4195 17.3858 34.2204 19.3691ZM11.1934 54.6286C11.1934 54.6286 10.6106 54.7881 10.4851 54.9813C10.3577 55.1765 10.1309 55.1427 9.84425 55.1765C9.55756 55.2121 9.55756 55.623 9.16969 55.623C8.78931 55.623 8.40144 55.7262 8.30962 56.0471C8.20844 56.3679 7.7962 56.655 7.37273 56.7132C6.96049 56.7807 6.47893 56.655 6.99422 56.3323C7.50951 56.0096 7.05231 55.7844 7.05231 55.623C7.05231 55.4635 7.11976 55.0489 7.37273 54.9494C7.63506 54.8556 8.20844 54.3077 8.20844 54.3077C8.20844 54.3077 8.40331 54.0207 8.08289 53.9869C7.76247 53.9531 7.53575 53.895 7.44206 54.1145C7.35024 54.3415 6.80122 55.3041 6.80122 55.3041C6.80122 55.3041 6.09293 55.2121 5.96738 55.6587C5.84184 56.1052 5.48582 56.4936 5.32655 56.5537C5.16728 56.6212 4.9724 56.3942 4.71944 56.5893C4.46648 56.7845 4.39902 56.2084 4.14606 56.5293C3.88373 56.8501 3.31035 56.8164 3.31035 56.8164C3.31035 56.8164 3.56331 55.9139 3.24289 56.2328C2.92248 56.5537 2.31537 57.0359 1.89377 57.0096C1.47966 56.9758 1.25293 57.0359 1.09366 57.2291C0.934386 57.4224 0.392861 57.2629 0.392861 57.2629L0.00311279 56.8745C0.00311279 56.8745 0.482803 56.5537 0.643949 56.3004C0.805095 56.0471 1.12551 55.533 1.28478 55.2459C1.44406 54.9513 1.41033 54.6305 1.73075 54.5367C2.05116 54.4353 2.11862 54.1483 2.11862 53.8612C2.11862 53.576 1.63893 53.6079 1.47778 53.7936C1.47778 53.7936 1.47778 53.4127 1.76447 53.1519C2.05116 52.8986 2.82691 52.165 3.07987 51.9023C3.33284 51.649 3.43402 51.649 3.43402 51.938C3.43402 52.2232 3.49211 52.7729 3.78817 52.7729C4.07486 52.7729 4.39527 52.5102 4.46273 52.2232C4.52269 51.938 5.10357 51.2963 4.84311 51.1011C4.59015 50.906 4.26973 50.9736 4.14231 51.2269C4.0074 51.4877 3.62889 51.3601 3.94744 51.0073C4.26786 50.6527 4.55455 50.1367 4.68196 49.8834C4.80751 49.6207 5.06984 49.3693 5.60949 49.2417C6.15851 49.1066 8.40144 48.5325 9.04227 48.1779C9.68311 47.8251 11.2252 46.8607 12.4732 46.4817C13.7211 46.0933 13.4344 45.9319 14.3282 45.84C15.2295 45.7387 15.9978 45.1983 16.4775 44.8756C16.9572 44.5547 17.3713 44.202 17.3713 44.5547V44.6148C17.3713 44.6148 17.5999 44.2339 18.2388 43.8117C18.8797 43.397 19.8072 43.2038 20.3543 43.2038C20.9015 43.2038 21.0289 43.11 21.2219 42.9167C21.4074 42.7216 21.7297 42.564 21.8627 42.851C21.9883 43.1362 22.4698 42.9167 22.6891 42.7572C22.9177 42.5959 23.077 42.3688 22.884 42.1737C22.6891 41.9879 22.4698 41.5658 22.6891 41.472C22.9177 41.3706 23.1781 41.3706 23.1781 41.6333C23.1781 41.8866 23.3655 42.3688 23.5585 42.3332C23.7534 42.3088 23.7178 41.4063 24.1057 41.6333C24.486 41.8528 25.0332 41.532 25.6066 41.3462C26.1893 41.1511 26.669 40.5113 26.7027 40.9935C26.7271 41.4738 27.2761 40.8584 27.5384 40.697C27.7914 40.5375 28.1118 39.6763 28.6252 39.9277C29.1387 40.1904 29.1387 40.2824 28.8201 40.5357C28.4997 40.7984 28.466 41.2111 28.4997 41.6333C28.5259 42.048 28.659 42.0123 29.1405 41.8284C29.6221 41.6333 32.6651 40.3518 32.9518 40.1904C33.2385 40.0309 35.1947 39.0665 35.1947 39.0665C35.1947 39.0665 35.4814 38.9652 35.354 38.6781C35.2285 38.3911 35.2622 38.0045 34.9661 37.9689C34.6795 37.9426 34.1998 37.361 34.4865 36.845C34.7806 36.3309 34.9418 35.9838 34.9418 36.6255C34.9418 37.269 35.161 37.361 35.4215 37.0739C35.6744 36.7868 35.8356 36.7193 35.9611 36.9801C36.0867 37.2334 36.2478 37.0382 36.4427 36.8788C36.6376 36.7174 36.9224 36.8187 37.0835 37.0045C37.2428 37.1996 37.3777 36.9463 37.4377 36.6836C37.5051 36.4284 37.6981 35.3984 38.3652 35.5259C39.0398 35.661 39.7724 35.661 39.7724 35.4002C39.7724 35.1469 39.6113 34.9199 39.8642 34.9199C40.1172 34.9199 40.3439 35.1469 40.2783 35.6873L40.758 35.661V36.5898L46.9472 33.796C46.9472 33.796 47.5543 33.6703 47.395 32.9929C47.2357 32.3156 47.335 32.4788 47.0746 32.4526C46.8216 32.4188 46.5012 31.9047 46.7279 31.6176C46.9472 31.323 47.1083 30.747 47.2338 31.1617C47.3688 31.5838 47.588 32.1336 47.588 32.1336C47.588 32.1336 47.8503 32.5482 48.0358 31.839C48.2307 31.1373 48.3881 30.7845 48.7441 30.5218C49.0964 30.2685 49.6379 30.0753 49.7728 29.8801C49.8984 29.6925 49.9921 29.3979 50.3125 29.533C50.6329 29.6587 50.4717 29.8182 50.1869 30.0134C49.9002 30.201 49.4187 30.6569 49.7054 30.8746C49.9921 31.1035 50.1195 31.1373 50.2525 30.9778C50.3799 30.8164 50.5392 30.7489 50.5392 31.1373C50.5392 31.5182 50.5055 31.9985 50.8934 31.9985C51.2719 31.9985 51.4667 31.7133 51.5679 31.3249C51.6597 30.944 51.6279 30.5556 52.0158 30.9102C52.3943 31.263 52.3362 30.8164 52.3362 30.8164C52.3362 30.8164 52.3943 30.428 52.8496 30.5218C53.2956 30.6232 54.0975 30.4956 54.3842 30.2685C54.6709 30.0396 55.7671 29.2722 55.7671 29.2722C55.7671 29.2722 56.2149 28.9176 56.3742 29.4317C56.3742 29.4317 56.5691 29.1109 56.7546 29.1109C56.9494 29.1109 56.7546 28.3097 57.0506 28.8576C57.3373 29.3979 58.4241 27.9869 59.9681 27.7937C59.9681 27.7937 60.3822 27.5742 60.5415 27.8612C60.7008 28.1483 60.8956 27.3809 61.3753 27.5404C61.855 27.7018 61.8906 27.1876 62.3703 27.1614C62.8519 27.1257 63.9724 27.0676 63.9724 26.5197C63.9724 25.9793 63.9049 25.7842 63.6763 25.7504C63.4571 25.7166 63.5171 25.4652 63.8712 25.3376C64.2254 25.2025 64.2591 26.0037 64.3846 26.4596C64.5121 26.9081 64.6713 26.5872 64.8999 26.3583C65.1267 26.1388 66.3071 25.2701 66.755 25.3958C67.2103 25.5215 67.5551 25.4295 67.6919 25.8761C67.8174 26.3245 68.0123 25.8761 68.0123 25.6585C68.0123 25.4295 67.8774 24.3732 68.4583 24.1462C69.0316 23.9172 69.1928 23.951 69.4532 24.1799C69.7062 24.3995 69.8336 24.1462 69.9929 24.7203C70.1522 25.3038 70.5063 25.0412 70.7949 24.8817C71.0891 24.7203 72.0166 23.8591 72.59 23.8591C73.1727 23.8591 73.0116 23.5964 73.0116 23.5964C73.0116 23.5964 73.0116 23.1498 73.4913 23.632C73.9728 24.1124 73.7779 23.8947 74.2258 23.6658C74.6736 23.4388 75.1271 22.8628 75.2208 23.4388C75.3126 24.0223 75.6349 23.7915 75.8616 23.4125C76.0902 23.0241 76.0902 22.4406 76.7554 22.2211C77.43 21.994 78.2657 21.707 78.3912 21.4781C78.5261 21.2585 78.6535 21.1309 78.9046 21.1309C79.167 21.1309 79.4518 21.0634 79.4518 20.8101C79.4518 20.5474 79.5117 20.1928 79.7385 20.675C79.9652 21.1572 80.3118 21.8983 79.3506 22.2548C78.3893 22.6076 77.6211 22.6339 77.3007 22.6339C76.9802 22.6339 76.6598 22.54 76.8547 22.9885L77.3007 24.0186C77.3007 24.0186 76.4331 23.951 76.3057 24.3038C76.1783 24.6584 75.6986 25.4614 75.6648 26.0018C75.6311 26.5497 75.2863 26.0675 75.2863 25.8742C75.2863 25.681 74.8647 24.8535 74.5443 24.5908C74.2239 24.3375 74.1321 24.3375 74.0309 24.6246C73.9391 24.9117 73.4575 24.5571 73.3901 24.9117C73.332 25.2663 73.0696 25.3939 72.7492 25.3939C72.4288 25.3939 71.8217 25.8405 72.3689 26.0675C72.9085 26.2964 73.4219 26.4822 73.4219 26.4822C73.4219 26.4822 74.0628 26.7111 73.227 26.8368C72.3913 26.9625 71.4057 27.0319 71.0178 26.9625C70.63 26.9043 69.9891 26.8368 69.9891 27.3772C69.9891 27.925 69.8636 28.1127 69.5076 28.3059C69.1628 28.5011 68.9342 28.7863 68.9342 28.7863C68.9342 28.7863 68.1659 28.3397 67.8118 28.2459C67.4576 28.1446 67.2984 28.3397 67.2646 28.6605C67.2309 28.9814 67.2984 29.2103 66.978 29.3022C66.6575 29.3961 65.7881 29.5574 65.3759 29.7844C64.9618 30.0115 64.3809 30.1391 64.2197 30.5519C64.2197 30.5519 63.6464 30.3323 63.3259 30.7132C63.0055 31.1016 61.7239 31.8109 60.89 31.8109C60.0562 31.8109 58.0999 32.6139 57.4572 33.0248L57.2624 32.7396C57.2624 32.7396 55.3061 33.6346 55.3061 33.8954C55.3061 33.8954 54.5716 33.7603 53.8989 34.1487C53.2243 34.5371 53.1644 34.6309 53.4173 35.5015C53.4173 35.5015 52.205 35.3402 51.9089 35.5935C51.6223 35.8468 50.7285 36.329 50.661 36.7512C50.601 37.164 50.2132 36.8168 50.1813 36.5898C50.1457 36.3628 50.215 36.1676 50.6029 36.0419C50.9833 35.9143 50.7884 35.5259 50.5017 35.5259C50.215 35.5259 49.0926 35.8468 48.8659 36.0419C48.6467 36.2371 48.1314 36.4303 48.0321 36.1695C47.9384 35.9143 47.5243 36.0419 47.3669 36.3647C47.2057 36.6855 46.6586 37.0063 47.232 37.1996C47.8147 37.3947 48.5811 37.5523 48.7422 37.4266C48.9015 37.3009 49.3831 36.4303 49.3831 36.7849C49.3831 37.1396 49.2238 37.6462 48.8697 37.8732C48.5155 38.1021 48.3881 37.6199 47.528 37.7137C47.528 37.7137 47.2338 38.0665 47.2338 38.3554C47.2338 38.3554 46.593 38.7438 46.4319 38.9296C46.2726 39.1247 45.791 38.7119 45.5381 38.6444C45.2757 38.5843 44.8298 38.4492 44.5768 38.7119C44.3145 38.9652 44.6368 39.2523 44.3145 39.3855C43.9941 39.5112 43.6137 40.121 42.9073 40.1548C42.2065 40.1886 40.6643 40.6351 40.4376 40.7608C40.2184 40.8884 39.7724 41.0479 39.7724 40.5075C39.7724 39.9596 39.3508 40.1191 39.2908 40.4738C39.2234 40.8265 39.2571 41.5038 38.7175 41.7571C38.1778 42.0104 37.6288 41.8829 37.3758 42.0442C37.1154 42.2037 35.7063 43.2338 35.3859 43.3952C35.0655 43.5565 31.5409 45.354 25.8314 47.6581L25.511 47.3373C25.5691 47.4255 18.4618 51.7991 11.1934 54.6286Z" fill="#7B002B"/>
<path d="M33.673 25.195V30.8952C33.9841 30.944 34.3045 30.9797 34.6081 30.8952C36.1258 30.4975 36.8004 28.9026 36.8004 27.3471V24.8648C36.8004 23.876 36.1596 23.2268 35.4606 23.2343C34.5144 23.253 34.0347 24.1649 33.673 25.195ZM25.0892 29.1296L22.2298 30.5387C22.3066 29.6606 22.8875 28.5799 23.7213 28.1652C24.2198 27.9232 25.0536 27.8462 25.0892 29.1296ZM32.382 17.2489V5.66645C36.7404 2.06019 37.4487 7.41516 37.3906 9.526C37.3157 12.5975 36.2101 16.2526 32.382 17.2489ZM60.6294 12.8846L57.7793 14.2937C57.8468 13.4156 58.4295 12.3273 59.2709 11.922C59.7693 11.6687 60.6031 11.5937 60.6294 12.8846ZM45.714 19.6974V25.3977C46.0269 25.4558 46.338 25.4821 46.6415 25.4052C48.1593 24.9999 48.8414 23.405 48.8414 21.8496V19.3691C48.8414 18.3728 48.2005 17.7217 47.5016 17.7311C46.5572 17.748 46.0663 18.6674 45.714 19.6974Z" fill="white"/>
<path d="M71.7261 15.1548L71.8854 15.0798L71.6418 14.5563L72.0465 14.3705C72.2995 14.2523 72.3332 14.5131 72.425 14.6482L72.5187 14.7908L72.7136 14.6989C72.5937 14.6238 72.603 14.5901 72.5187 14.4381C72.4007 14.2355 72.3913 14.2092 72.2227 14.1923C72.307 14.0403 72.3239 13.9653 72.247 13.8133C72.1046 13.5356 71.9023 13.5844 71.7168 13.6688L71.1696 13.9221L71.7261 15.1548Z" fill="#7B002B"/>
<path d="M71.786 13.8133C71.8778 13.772 72.039 13.7195 72.1139 13.9465C72.1739 14.1079 72.0802 14.1829 71.9697 14.2336L71.5818 14.4137L71.3869 13.9897L71.786 13.8133Z" fill="white"/>
</g>
<defs>
<clipPath id="clip0_1922_2264">
<rect width="80" height="57.3248" fill="white"/>
</clipPath>
</defs>
</svg>

<svg width="80" height="58" fill="none" xmlns="http://www.w3.org/2000/svg"><g clip-path="url(#clip0_1922_2264)"><path d="M71.878 15.605a1.224 1.224 0 10-.002-2.449 1.224 1.224 0 00.002 2.45z" fill="#7B002B"/><path d="M72.865 13.931a1.086 1.086 0 01-.733 1.506 1.083 1.083 0 01-1.176-1.62c.111-.183.274-.328.468-.418a1.09 1.09 0 011.441.533z" fill="#fff"/><path d="M46.7 32.835v.323l-5.423 2.557v-.43s.734-.708.734-2.667V20.39s-.236-1.588-1.028-1.933v-.347l3.195-1.375c.313-.135 1.053-.71 1.248-1.03h.286v1.088c1.053-1.646 2.455-2.651 4.149-2.77 2.664-.195 3.339 2.879 3.255 5.016-.135 3.647-2.421 7.76-6.072 8.477-.421.084-.886-.007-1.332-.152v3.681c.002.002-.05 1.336.988 1.79z" fill="#7B002B"/><path d="M34.659 38.333v.33l-5.414 2.558v-.43s.726-.71.726-2.668V25.897s-.237-1.59-1.03-1.935v-.345l3.205-1.377c.313-.133 1.053-.71 1.248-1.038h.28V22.3c1.06-1.648 2.452-2.651 4.148-2.777 2.664-.188 3.33 2.878 3.254 5.023-.135 3.638-2.411 7.753-6.061 8.47-.43.084-.894 0-1.34-.153v3.691c-.002-.004-.045 1.33.984 1.779zm29.806-24.857l-6.67 3.25s-.051 2.33 2.04 2.33 4.654-3.3 4.654-3.3l.236.127-.809 3.14s-3.584 3.513-6.796 3.513c-3.221 0-3.322-4.561-3.322-4.561s-.21-5.124 4.755-8.166c4.968-2.987 6.174 1.758 5.912 3.667z" fill="#7B002B"/><path d="M28.925 29.72l-6.67 3.25s-.051 2.33 2.04 2.33 4.654-3.3 4.654-3.3l.236.135-.809 3.14s-3.585 3.505-6.806 3.505c-3.211 0-3.322-4.55-3.322-4.55s-.202-5.133 4.763-8.165c4.97-2.98 6.175 1.748 5.914 3.657z" fill="#7B002B"/><path d="M18.823 40.012v.313l-8.49 3.909v-.362s1.171-1.3 1.171-3.445v-17.15s.085-3.31-1.635-3.968v-.285l9.275-4.273c5.218-2.416 6.787.059 6.998 2.498.27 3.049-.994 6.61-3.878 8.327-1.407.835-2.843 1.62-4.3 2.229v-.514c1.982-1.537 3.146-4.137 3.078-6.695-.034-1.124-1.137-2.6-2.58-1.884l-1.872.939v16.793c0-.002-.053 4.118 2.233 3.568zm51.183-23.54v.236L64.795 19.2v-.422s.59-.794.59-2.306V9.068s-.118-1.047-1.012-1.62l3.684-1.697s.641-.355.928-.777l.195.203v1.097s1.255-2.61 3.078-2.61v3.2s-2.233.388-3.061 2.407v5.724s0 .99.809 1.477zm-22.244-3.664v.236l-5.21 2.492v-.422s.59-.794.59-2.306V5.404s-.119-1.047-1.005-1.621l3.676-1.697s.641-.352.928-.776l.202.202V2.61S48.2 0 50.02 0v3.2s-2.243.387-3.06 2.406v5.725c.002 0 .002.987.802 1.477zM34.22 19.369l-7.124 3.36v-.438s.901-.71.901-3.209V6.772s-.125-1.69-1.221-1.57v-.288l7.319-3.36c3.163-1.453 7.8-.49 7.8 4.364v1.807c-.002 5.32-3.476 9.66-7.675 11.644zM11.193 54.63s-.582.16-.708.352c-.127.195-.354.162-.64.195-.287.036-.287.447-.675.447-.38 0-.769.103-.86.424-.102.32-.514.608-.937.666-.413.068-.894-.058-.379-.38.516-.323.058-.549.058-.71 0-.16.068-.574.32-.674.263-.093.836-.641.836-.641s.195-.287-.125-.321c-.32-.034-.547-.092-.64.127-.093.228-.642 1.19-.642 1.19s-.708-.092-.834.355c-.125.446-.481.835-.64.895-.16.067-.355-.16-.608.035-.253.196-.32-.38-.573-.06-.262.321-.836.287-.836.287s.253-.902-.067-.583c-.32.32-.928.803-1.35.777-.413-.034-.64.026-.8.22-.159.192-.7.033-.7.033l-.39-.389s.48-.32.64-.574c.162-.253.483-.767.642-1.054.16-.295.125-.616.446-.71.32-.1.388-.388.388-.675 0-.285-.48-.253-.641-.067 0 0 0-.381.286-.642a36.523 36.523 0 001.316-1.25c.253-.253.354-.253.354.036 0 .285.058.835.354.835.287 0 .607-.263.675-.55.06-.285.64-.927.38-1.122-.253-.195-.573-.127-.7.126-.136.26-.514.133-.196-.22.32-.354.608-.87.735-1.124.126-.262.388-.514.927-.641.55-.135 2.792-.71 3.433-1.064.641-.353 2.183-1.317 3.431-1.696 1.248-.389.961-.55 1.855-.642.902-.101 1.67-.642 2.15-.964.48-.321.893-.674.893-.321v.06s.229-.381.868-.803c.64-.415 1.568-.608 2.115-.608.547 0 .675-.094.868-.287.185-.195.508-.353.64-.066.126.285.608.066.827-.094.229-.161.388-.388.195-.583-.195-.186-.414-.608-.195-.702.229-.101.49-.101.49.161 0 .254.187.736.38.7.194-.024.159-.927.547-.7.38.22.927-.101 1.5-.287.583-.195 1.063-.835 1.097-.352.024.48.573-.136.835-.297.253-.16.574-1.02 1.087-.77.514.263.514.355.195.609-.32.262-.354.675-.32 1.097.026.415.159.38.64.195.482-.195 3.525-1.476 3.812-1.638.287-.16 2.243-1.123 2.243-1.123s.286-.102.159-.389c-.126-.287-.092-.673-.388-.71-.287-.025-.766-.607-.48-1.123.295-.514.456-.861.456-.22 0 .644.219.736.48.449.252-.287.414-.355.54-.094.125.253.286.058.48-.101.196-.162.48-.06.642.126.159.195.294-.059.354-.321.067-.256.26-1.286.927-1.158.675.135 1.407.135 1.407-.126 0-.253-.16-.48.092-.48.253 0 .48.227.414.767l.48-.026v.929l6.19-2.794s.606-.126.447-.803c-.16-.677-.06-.514-.32-.54-.253-.034-.574-.548-.347-.835.22-.295.38-.871.506-.456.135.422.354.972.354.972s.262.414.448-.295c.195-.702.352-1.054.708-1.317.352-.253.894-.447 1.029-.642.125-.188.22-.482.54-.347.32.126.159.285-.126.48-.287.188-.768.644-.482.862.287.229.415.262.547.103.128-.162.287-.23.287.16 0 .38-.034.86.354.86.379 0 .574-.285.675-.673.092-.381.06-.77.448-.415.378.353.32-.094.32-.094s.058-.388.514-.294c.446.101 1.247-.026 1.534-.253a52.017 52.017 0 011.383-.997s.448-.354.607.16c0 0 .195-.321.38-.321.195 0 0-.801.297-.253.286.54 1.373-.871 2.917-1.064 0 0 .414-.22.573.067.16.287.355-.48.834-.32.48.16.516-.353.995-.38.482-.035 1.602-.093 1.602-.641 0-.54-.067-.736-.296-.77-.219-.033-.159-.285.195-.412.354-.136.388.666.514 1.122.127.448.286.127.515-.102.227-.22 1.407-1.088 1.855-.962.455.125.8.034.937.48.125.448.32 0 .32-.218 0-.229-.135-1.285.446-1.512.574-.229.735-.195.995.034.253.22.38-.034.54.54.16.584.513.321.802.162.294-.162 1.222-1.023 1.795-1.023.583 0 .422-.263.422-.263s0-.446.48.036c.48.48.286.263.734.034.448-.227.901-.803.995-.227.092.583.414.352.64-.026.23-.389.23-.972.894-1.192.675-.227 1.51-.514 1.636-.743.135-.22.262-.347.514-.347.262 0 .547-.068.547-.32 0-.264.06-.618.287-.136.226.482.573 1.223-.388 1.58a5.943 5.943 0 01-2.05.379c-.32 0-.641-.094-.446.354l.446 1.03s-.868-.067-.995.286c-.128.354-.607 1.157-.641 1.698-.034.548-.379.066-.379-.128 0-.193-.421-1.02-.742-1.283-.32-.254-.412-.254-.513.034-.092.287-.574-.068-.64.287-.059.354-.321.482-.642.482-.32 0-.927.447-.38.674.54.228 1.053.414 1.053.414s.64.23-.195.355c-.836.125-1.821.195-2.21.125-.387-.058-1.028-.125-1.028.415 0 .548-.125.736-.481.929-.345.195-.574.48-.574.48s-.768-.446-1.122-.54c-.354-.101-.514.094-.547.415-.034.32.033.55-.287.641-.32.094-1.19.255-1.602.482-.414.228-.995.355-1.156.768 0 0-.574-.22-.894.161-.32.389-1.602 1.098-2.436 1.098-.834 0-2.79.803-3.433 1.214l-.195-.285s-1.956.895-1.956 1.155c0 0-.734-.135-1.407.254-.675.388-.735.482-.482 1.352 0 0-1.212-.16-1.508.093-.287.253-1.18.735-1.248 1.157-.06.413-.448.066-.48-.161-.035-.227.034-.422.422-.548.38-.128.185-.516-.101-.516-.287 0-1.41.32-1.636.516-.22.195-.735.388-.834.127-.094-.255-.508-.127-.665.196-.161.32-.708.641-.135.835.583.195 1.35.352 1.51.227.16-.126.641-.997.641-.642s-.16.861-.513 1.088c-.354.23-.482-.253-1.342-.16 0 0-.294.353-.294.642 0 0-.641.389-.802.575-.16.195-.641-.218-.894-.286-.262-.06-.708-.195-.961.068-.262.253.06.54-.262.673-.32.126-.701.736-1.408.77-.7.034-2.243.48-2.47.606-.219.127-.665.287-.665-.254 0-.547-.421-.388-.481-.033-.068.353-.034 1.03-.573 1.283-.54.253-1.09.126-1.342.287-.26.16-1.67 1.19-1.99 1.351-.32.161-3.845 1.959-9.555 4.263l-.32-.32c.058.087-7.05 4.461-14.318 7.29z" fill="#7B002B"/><path d="M33.673 25.195v5.7c.311.049.631.085.935 0 1.518-.398 2.192-1.992 2.192-3.548v-2.482c0-.989-.64-1.638-1.34-1.63-.946.018-1.425.93-1.787 1.96zm-8.584 3.935l-2.86 1.409c.078-.878.659-1.96 1.492-2.374.499-.242 1.333-.319 1.368.965zm7.293-11.881V5.666c4.358-3.606 5.067 1.75 5.009 3.86-.075 3.072-1.18 6.727-5.009 7.723zm28.247-4.364l-2.85 1.409c.068-.878.65-1.967 1.492-2.372.498-.253 1.332-.328 1.358.963zm-14.915 6.812v5.7c.313.059.624.085.928.008 1.517-.405 2.2-2 2.2-3.555v-2.48c0-.997-.642-1.648-1.34-1.639-.945.017-1.436.936-1.788 1.966z" fill="#fff"/><path d="M71.726 15.155l.16-.075-.244-.524.404-.185c.253-.119.287.142.379.277l.094.143.195-.092c-.12-.075-.111-.109-.195-.26-.118-.204-.128-.23-.296-.247.084-.152.1-.227.024-.379-.142-.277-.345-.229-.53-.144l-.547.253.556 1.233z" fill="#7B002B"/><path d="M71.786 13.813c.092-.041.253-.094.328.133.06.162-.034.237-.144.288l-.388.18-.195-.424.399-.177z" fill="#fff"/></g><defs><clipPath id="clip0_1922_2264"><path fill="#fff" d="M0 0h80v57.325H0z"/></clipPath></defs></svg>
